svg/24/message-set.svg

<svg width="24" height="24" viewBox="0 0 24 24" fill="currentColor" xmlns="http://www.w3.org/2000/svg"><path d="M4.71334 16.4185L3.63779 20.3622L7.58147 19.2866L8.101 19.5554C9.19238 20.1199 10.4223 20.4551 11.73 20.4958C12.0111 21.0361 12.3658 21.5319 12.7809 21.97C12.5232 21.9899 12.2628 22 12 22C10.3461 22 8.786 21.5985 7.41182 20.8877L3.18829 22.0395C2.44179 22.2431 1.75682 21.5582 1.96041 20.8117L3.11228 16.5881C2.40145 15.214 1.99996 13.6539 1.99996 12C1.99996 6.47715 6.47711 2 12 2C17.5228 2 22 6.47715 22 12C22 12.2628 21.9898 12.5232 21.9699 12.7809C21.5318 12.3658 21.036 12.0111 20.4958 11.73C20.3532 7.16052 16.604 3.5 12 3.5C7.30554 3.5 3.49996 7.30558 3.49996 12C3.49996 13.4085 3.84135 14.7328 4.44459 15.899L4.71334 16.4185Z"/><path fill-rule="evenodd" clip-rule="evenodd" d="M23 17.5C23 20.5376 20.5376 23 17.5 23C14.4624 23 12 20.5376 12 17.5C12 14.4624 14.4624 12 17.5 12C20.5376 12 23 14.4624 23 17.5ZM20 15.5C20 15.2239 19.7762 15 19.5 15H16.6716C16.3955 15 16.1716 15.2239 16.1716 15.5C16.1716 15.7761 16.3955 16 16.6716 16H18.2929L15.1463 19.1466C14.9511 19.3419 14.9511 19.6584 15.1463 19.8537C15.3416 20.049 15.6582 20.049 15.8534 19.8537L19 16.7071V18.3284C19 18.6046 19.2239 18.8284 19.5 18.8284C19.7762 18.8284 20 18.6046 20 18.3284V15.5Z"/></svg>

<svg xmlns="http://www.w3.org/2000/svg" width="24" height="24" fill="currentColor" viewBox="0 0 24 24">
  <path d="m4.713 16.419-1.075 3.943 3.943-1.075.52.268a8.45 8.45 0 0 0 3.629.94 6.532 6.532 0 0 0 1.05 1.475 9.958 9.958 0 0 1-5.37-1.082L3.19 22.04a1 1 0 0 1-1.228-1.228l1.152-4.224A9.957 9.957 0 0 1 2 12C2 6.477 6.477 2 12 2s10 4.477 10 10c0 .263-.01.523-.03.78a6.52 6.52 0 0 0-1.474-1.05 8.5 8.5 0 1 0-16.051 4.169l.268.52Z"/>
  <path fill-rule="evenodd" d="M23 17.5a5.5 5.5 0 1 1-11 0 5.5 5.5 0 0 1 11 0Zm-3-2a.5.5 0 0 0-.5-.5h-2.828a.5.5 0 0 0 0 1h1.62l-3.146 3.147a.5.5 0 0 0 .707.707L19 16.707v1.621a.5.5 0 1 0 1 0V15.5Z" clip-rule="evenodd"/>
</svg>
